x-pack/platform/plugins/shared/fleet/public/assets/arrow_right_curve_over.svg

<svg width="148" height="96" viewBox="0 0 148 96" fill="none" xmlns="http://www.w3.org/2000/svg">
<g clip-path="url(#clip0_928_269283)">
<path d="M-13.6413 79.2887C3.70269 56.3238 29.145 40.2257 57.7924 34.0905C72.4471 30.845 87.5521 30.1897 102.369 32.1566C116.783 34.0812 134.092 38.1703 145.444 47.2832C145.65 47.4552 145.784 47.6932 145.822 47.9544C145.86 48.2156 145.799 48.4827 145.651 48.7075C145.504 48.9323 145.278 49.0999 145.016 49.18C144.753 49.2602 144.471 49.2476 144.22 49.1446C129.844 44.4021 117.08 37.9578 101.718 35.8328C87.5905 33.8826 73.1775 34.3866 59.1578 37.3211C30.9701 43.3246 5.57808 58.325 -12.8813 79.8785C-13.2951 80.3636 -13.9991 79.7103 -13.6388 79.2747L-13.6413 79.2887Z" fill="#DAE0EB"/>
<path d="M140.408 28.3982C143.112 29.2903 143.839 34.633 144.491 36.8044C145.59 40.4726 147.076 44.2133 147.801 47.9827C148.305 50.575 147.788 51.8987 144.933 52.4424C138.124 53.8752 131.214 54.7837 124.271 55.1593C124.104 55.1776 123.937 55.137 123.801 55.0451C123.665 54.9531 123.569 54.8162 123.532 54.6598C123.494 54.5035 123.517 54.3384 123.596 54.1955C123.676 54.0526 123.806 53.9416 123.963 53.8834C128.059 51.8718 132.375 50.3176 136.825 49.2516C138.504 48.8173 140.716 48.7205 142.632 48.3648C142.495 47.8866 142.408 47.3731 142.277 47.0246L139.793 39.6308C138.924 37.0121 137.265 32.6591 138.11 28.8968C138.348 28.0602 139.653 28.1418 140.408 28.3982Z" fill="#DAE0EB"/>
</g>
<defs>
<clipPath id="clip0_928_269283">
<rect width="148" height="96" fill="white"/>
</clipPath>
</defs>
</svg>

<svg xmlns="http://www.w3.org/2000/svg" width="148" height="96" fill="none"><g fill="#DAE0EB" clip-path="url(#a)"><path d="M-13.641 79.289C3.703 56.324 29.145 40.226 57.792 34.09a128.2 128.2 0 0 1 44.577-1.934c14.414 1.924 31.723 6.013 43.075 15.126a1.076 1.076 0 0 1 .207 1.425 1.187 1.187 0 0 1-1.431.437c-14.376-4.743-27.14-11.187-42.502-13.312a124.7 124.7 0 0 0-42.56 1.488C30.97 43.325 5.578 58.325-12.882 79.88c-.413.485-1.117-.169-.757-.604z"/><path d="M140.408 28.398c2.704.892 3.431 6.235 4.083 8.406 1.099 3.669 2.585 7.41 3.31 11.179.504 2.592-.013 3.916-2.868 4.46a136 136 0 0 1-20.662 2.716.7.7 0 0 1-.47-.114.646.646 0 0 1-.205-.85.7.7 0 0 1 .367-.312 62 62 0 0 1 12.862-4.631c1.679-.435 3.891-.532 5.807-.887-.137-.478-.224-.992-.355-1.34l-2.484-7.394c-.869-2.619-2.528-6.972-1.683-10.734.238-.837 1.543-.755 2.298-.499"/></g><defs><clipPath id="a"><path fill="#fff" d="M0 0h148v96H0z"/></clipPath></defs></svg>
